Newaita/actions/24/character-set.svg

<?xml version="1.0" encoding="UTF-8"?>
<svg xmlns="http://www.w3.org/2000/svg" xmlns:xlink="http://www.w3.org/1999/xlink" width="24pt" height="24pt" viewBox="0 0 24 24" version="1.1">
<g id="surface1">
<path style=" stroke:none;fill-rule:nonzero;fill:rgb(25.882354%,25.882354%,25.882354%);fill-opacity:1;" d="M 12.402344 13.582031 L 12.402344 5.644531 L 4.960938 5.644531 L 4.960938 13.582031 Z M 12.402344 13.582031 "/>
<path style=" stroke:none;fill-rule:nonzero;fill:rgb(100%,43.921569%,26.274511%);fill-opacity:1;" d="M 3.226562 1.675781 C 4.183594 1.675781 4.960938 2.453125 4.960938 3.414062 C 4.960938 4.371094 4.183594 5.148438 3.226562 5.148438 C 2.265625 5.148438 1.488281 4.371094 1.488281 3.414062 C 1.488281 2.453125 2.265625 1.675781 3.226562 1.675781 Z M 3.226562 1.675781 "/>
<path style=" stroke:none;fill-rule:nonzero;fill:rgb(25.882354%,25.882354%,25.882354%);fill-opacity:1;" d="M 13.394531 9.613281 L 13.394531 17.550781 L 22.824219 17.550781 L 22.675781 17.40625 C 22.484375 17.601562 22.167969 17.601562 21.976562 17.40625 L 18.503906 13.933594 C 18.308594 13.742188 18.308594 13.425781 18.503906 13.234375 L 21.976562 9.761719 C 22.066406 9.671875 22.183594 9.617188 22.3125 9.613281 C 22.449219 9.609375 22.582031 9.664062 22.675781 9.761719 L 22.824219 9.613281 Z M 13.394531 9.613281 "/>
<path style=" stroke:none;fill-rule:nonzero;fill:rgb(100%,43.921569%,26.274511%);fill-opacity:1;" d="M 2.496094 6.230469 C 2.488281 6.28125 2.480469 6.335938 2.480469 6.390625 L 2.480469 22.265625 C 2.480469 22.679688 2.8125 23.011719 3.226562 23.011719 C 3.636719 23.011719 3.96875 22.679688 3.96875 22.265625 L 3.96875 6.390625 C 3.96875 6.335938 3.964844 6.28125 3.953125 6.230469 C 3.730469 6.332031 3.484375 6.390625 3.226562 6.390625 C 2.964844 6.390625 2.71875 6.332031 2.496094 6.230469 Z M 2.496094 6.230469 "/>
</g>
</svg>

<svg xmlns="http://www.w3.org/2000/svg" width="32" height="32" viewBox="0 0 24 24"><path d="M12.402 13.582V5.645H4.961v7.937zm0 0" fill="#424242"/><path d="M3.227 1.676a1.736 1.736 0 1 1-.004 3.472 1.736 1.736 0 0 1 .004-3.472zm0 0" fill="#ff7043"/><path d="M13.395 9.613v7.938h9.43l-.15-.145a.49.49 0 0 1-.698 0l-3.473-3.472a.49.49 0 0 1 0-.7l3.473-3.472a.486.486 0 0 1 .7 0l.147-.149zm0 0" fill="#424242"/><path d="M2.496 6.23a1.06 1.06 0 0 0-.016.16v15.876a.744.744 0 1 0 1.489 0V6.39a.719.719 0 0 0-.016-.16 1.748 1.748 0 0 1-1.457 0zm0 0" fill="#ff7043"/></svg>
